X: 1285
T: An Feochán
R: polka
M: 2/4
K: Eminor
E3E2F {G}E3|B3B2B A2B {G}E3|d9|Bcdd3B/c/d2|
e3e2fd3d2f|e6e2B|g3g2B|f3f2B|

